!!! OTL: Berkowitz88
!!! Chapter: 1
!!! Section: I
!!! Page: 22
!!! Mode: 
!!! Encoder: DJB
**kern
*staff1
*I"Piano
=1-
*clefG2
*k[f#]
*e:
*M3/4
4ee\
4b\
4r
=2
4cc\
4b\
4a/
=3
4b\
4e/
4r
=4
4f#/
4g/
4a/
=5
4.b\
8cc\
4b\
=6
4.cc\
8dd\
4cc\
=7
4b\
8a/L
8g/J
8f#/L
8e/J
=8
2.b\
=9
4g/
4e/
4r
=10
4g/
4b\
4r
=11
4ee\
4b\
4ee\
=12
!!linebreak:original
4.dd\
8cc\
4b\
=13
4cc\
4a/
4cc\
=14
4.b\
8g/
4e/
=15
4d#/
4c#/
4d#/
=16
2.e/
==
*-
